flaticon/science/flask-4.svg

<svg xmlns="http://www.w3.org/2000/svg" width="32" height="32" viewBox="0 0 24 24">
    <path d="M18.800781 4.597656L16.402344 4.597656C16.160156 4.597656 16 4.757812 16 4.996094 16 5.234375 16.160156 5.394531 16.402344 5.394531L18.800781 5.394531C19.042969 5.394531 19.203125 5.234375 19.203125 4.996094 19.203125 4.757812 19.042969 4.597656 18.800781 4.597656zM16.402344 6.996094L17.601562 6.996094C17.839844 6.996094 18 6.835938 18 6.597656 18 6.355469 17.839844 6.195312 17.601562 6.195312L16.402344 6.195312C16.160156 6.195312 16 6.355469 16 6.597656 16 6.835938 16.160156 6.996094 16.402344 6.996094zM18.800781 7.796875L16.402344 7.796875C16.160156 7.796875 16 7.957031 16 8.199219 16 8.4375 16.160156 8.597656 16.402344 8.597656L18.800781 8.597656C19.042969 8.597656 19.203125 8.4375 19.203125 8.199219 19.203125 7.957031 19.042969 7.796875 18.800781 7.796875zM17.601562 9.398438L16.402344 9.398438C16.160156 9.398438 16 9.558594 16 9.796875 16 10.039062 16.160156 10.199219 16.402344 10.199219L17.601562 10.199219C17.839844 10.199219 18 10.039062 18 9.796875 18 9.558594 17.839844 9.398438 17.601562 9.398438zM6.796875 4.597656L4.394531 4.597656C4.152344 4.597656 3.992188 4.757812 3.992188 4.996094 3.992188 5.234375 4.152344 5.394531 4.394531 5.394531L6.796875 5.394531C7.035156 5.394531 7.195312 5.234375 7.195312 4.996094 7.195312 4.757812 7.035156 4.597656 6.796875 4.597656zM4.394531 6.996094L5.59375 6.996094C5.835938 6.996094 5.996094 6.835938 5.996094 6.597656 5.996094 6.355469 5.835938 6.195312 5.59375 6.195312L4.394531 6.195312C4.152344 6.195312 3.992188 6.355469 3.992188 6.597656 3.992188 6.835938 4.152344 6.996094 4.394531 6.996094zM6.796875 7.796875L4.394531 7.796875C4.152344 7.796875 3.992188 7.957031 3.992188 8.199219 3.992188 8.4375 4.152344 8.597656 4.394531 8.597656L6.796875 8.597656C7.035156 8.597656 7.195312 8.4375 7.195312 8.199219 7.195312 7.957031 7.035156 7.796875 6.796875 7.796875zM5.59375 9.398438L4.394531 9.398438C4.152344 9.398438 3.992188 9.558594 3.992188 9.796875 3.992188 10.039062 4.152344 10.199219 4.394531 10.199219L5.59375 10.199219C5.835938 10.199219 5.996094 10.039062 5.996094 9.796875 5.996094 9.558594 5.835938 9.398438 5.59375 9.398438zM5.59375 9.398438"/>
    <path d="M 23.523438 19.242188 L 23.203125 18.765625 C 23.125 18.683594 23.003906 18.605469 22.882812 18.605469 L 22.113281 18.605469 C 22.816406 17.6875 23.203125 16.558594 23.203125 15.402344 C 23.203125 13.960938 22.605469 12.601562 21.601562 11.640625 L 21.601562 2.929688 C 22.078125 2.773438 22.402344 2.332031 22.402344 1.792969 C 22.402344 1.113281 21.882812 0.59375 21.203125 0.59375 L 14.800781 0.59375 C 14.121094 0.59375 13.597656 1.113281 13.597656 1.792969 C 13.597656 2.332031 13.925781 2.773438 14.398438 2.929688 L 14.398438 11.640625 C 13.398438 12.640625 12.796875 14 12.796875 15.402344 C 12.796875 16.585938 13.1875 17.699219 13.886719 18.605469 L 10.105469 18.605469 C 10.808594 17.6875 11.199219 16.558594 11.199219 15.402344 C 11.199219 13.960938 10.597656 12.601562 9.597656 11.640625 L 9.597656 2.929688 C 10.070312 2.773438 10.398438 2.332031 10.398438 1.792969 C 10.398438 1.113281 9.878906 0.59375 9.195312 0.59375 L 2.792969 0.59375 C 2.113281 0.59375 1.59375 1.113281 1.59375 1.792969 C 1.59375 2.332031 1.917969 2.773438 2.394531 2.929688 L 2.394531 11.640625 C 1.390625 12.640625 0.792969 14 0.792969 15.402344 C 0.792969 16.558594 1.183594 17.6875 1.886719 18.605469 L 1.113281 18.605469 C 0.992188 18.605469 0.871094 18.683594 0.792969 18.804688 L 0.511719 19.203125 C -0.0898438 20.003906 -0.167969 21.085938 0.3125 21.964844 C 0.753906 22.847656 1.671875 23.40625 2.671875 23.40625 L 21.363281 23.40625 C 22.363281 23.40625 23.246094 22.847656 23.683594 21.964844 C 24.164062 21.125 24.085938 20.042969 23.523438 19.242188 Z M 14.800781 1.394531 L 21.203125 1.394531 C 21.445312 1.394531 21.601562 1.554688 21.601562 1.792969 C 21.601562 2.035156 21.445312 2.195312 21.203125 2.195312 L 14.800781 2.195312 C 14.558594 2.195312 14.398438 2.035156 14.398438 1.792969 C 14.398438 1.554688 14.558594 1.394531 14.800781 1.394531 Z M 13.597656 15.402344 C 13.597656 14.160156 14.121094 12.960938 15.078125 12.121094 C 15.160156 12.082031 15.199219 11.960938 15.199219 11.839844 L 15.199219 2.996094 L 20.84375 2.996094 L 20.84375 11.839844 C 20.84375 11.921875 20.882812 12.039062 20.964844 12.121094 C 21.921875 12.960938 22.445312 14.160156 22.445312 15.402344 C 22.445312 16.601562 21.921875 17.761719 21.042969 18.605469 L 15 18.605469 C 14.121094 17.761719 13.597656 16.601562 13.597656 15.402344 Z M 2.792969 1.394531 L 9.195312 1.394531 C 9.4375 1.394531 9.597656 1.554688 9.597656 1.792969 C 9.597656 2.035156 9.4375 2.195312 9.195312 2.195312 L 2.792969 2.195312 C 2.554688 2.195312 2.394531 2.035156 2.394531 1.792969 C 2.394531 1.554688 2.554688 1.394531 2.792969 1.394531 Z M 1.59375 15.402344 C 1.59375 14.160156 2.113281 12.960938 3.074219 12.121094 C 3.152344 12.082031 3.195312 11.960938 3.195312 11.839844 L 3.195312 2.996094 L 8.835938 2.996094 L 8.835938 11.839844 C 8.835938 11.921875 8.875 12.039062 8.957031 12.121094 C 9.917969 12.960938 10.4375 14.160156 10.4375 15.402344 C 10.4375 16.601562 9.917969 17.761719 9.035156 18.605469 L 2.992188 18.605469 C 2.113281 17.761719 1.59375 16.601562 1.59375 15.402344 Z M 23.003906 21.605469 C 22.683594 22.246094 22.082031 22.605469 21.363281 22.605469 L 2.671875 22.605469 C 1.992188 22.605469 1.351562 22.246094 1.03125 21.605469 C 0.710938 20.964844 0.753906 20.246094 1.152344 19.644531 L 1.3125 19.402344 L 22.683594 19.402344 L 22.882812 19.683594 C 23.285156 20.285156 23.324219 20.964844 23.003906 21.605469 Z M 23.003906 21.605469"/>
    <path d="M 21.605469 20.605469 L 2.394531 20.605469 C 2.152344 20.605469 1.992188 20.765625 1.992188 21.003906 C 1.992188 21.246094 2.152344 21.40625 2.394531 21.40625 L 21.601562 21.40625 C 21.84375 21.40625 22.003906 21.246094 22.003906 21.003906 C 22.003906 20.765625 21.84375 20.605469 21.605469 20.605469 Z M 21.605469 20.605469"/>
</svg>

<svg xmlns="http://www.w3.org/2000/svg" width="32" height="32" viewBox="0 0 24 24">
    <path d="M18.8 4.598h-2.398c-.242 0-.402.16-.402.398 0 .238.16.399.402.399h2.399c.242 0 .402-.16.402-.399 0-.238-.16-.398-.402-.398zm0 0M16.402 6.996h1.2c.238 0 .398-.16.398-.398 0-.243-.16-.403-.398-.403h-1.2c-.242 0-.402.16-.402.403 0 .238.16.398.402.398zm0 0M18.8 7.797h-2.398c-.242 0-.402.16-.402.402 0 .239.16.399.402.399h2.399c.242 0 .402-.16.402-.399 0-.242-.16-.402-.402-.402zm0 0M17.602 9.398h-1.2c-.242 0-.402.16-.402.399 0 .242.16.402.402.402h1.2c.238 0 .398-.16.398-.402 0-.238-.16-.399-.398-.399zm0 0M6.797 4.598H4.395c-.243 0-.403.16-.403.398 0 .238.16.399.403.399h2.402c.238 0 .398-.16.398-.399 0-.238-.16-.398-.398-.398zm0 0M4.395 6.996h1.199c.242 0 .402-.16.402-.398 0-.243-.16-.403-.402-.403h-1.2c-.242 0-.402.16-.402.403 0 .238.16.398.403.398zm0 0M6.797 7.797H4.395c-.243 0-.403.16-.403.402 0 .239.16.399.403.399h2.402c.238 0 .398-.16.398-.399 0-.242-.16-.402-.398-.402zm0 0M5.594 9.398h-1.2c-.242 0-.402.16-.402.399 0 .242.16.402.403.402h1.199c.242 0 .402-.16.402-.402 0-.238-.16-.399-.402-.399zm0 0"/>
    <path d="M23.523 19.242l-.32-.476c-.078-.082-.2-.16-.32-.16h-.77a5.28 5.28 0 0 0 1.09-3.204 5.22 5.22 0 0 0-1.601-3.761V2.93c.476-.157.8-.598.8-1.137 0-.68-.52-1.2-1.199-1.2h-6.402c-.68 0-1.203.52-1.203 1.2 0 .539.328.98.8 1.137v8.71c-1 1-1.601 2.36-1.601 3.762a5.22 5.22 0 0 0 1.09 3.203h-3.782a5.283 5.283 0 0 0 1.094-3.203c0-1.441-.601-2.8-1.601-3.761V2.93c.472-.157.8-.598.8-1.137 0-.68-.52-1.2-1.203-1.2H2.793c-.68 0-1.2.52-1.2 1.2 0 .539.325.98.802 1.137v8.71C1.39 12.64.793 14 .793 15.403c0 1.157.39 2.286 1.094 3.203h-.774c-.12 0-.242.079-.32.2l-.281.398a2.56 2.56 0 0 0-.2 2.762 2.635 2.635 0 0 0 2.36 1.441h18.691c1 0 1.883-.558 2.32-1.441.481-.84.403-1.922-.16-2.723zM14.801 1.395h6.402c.242 0 .399.16.399.398 0 .242-.157.402-.399.402h-6.402c-.242 0-.403-.16-.403-.402 0-.238.16-.398.403-.398zm-1.203 14.007c0-1.242.523-2.441 1.48-3.28.082-.04.121-.161.121-.282V2.996h5.645v8.844c0 .082.039.2.12.281.958.84 1.481 2.04 1.481 3.281 0 1.2-.523 2.36-1.402 3.203H15c-.879-.843-1.402-2.003-1.402-3.203zM2.793 1.395h6.402c.242 0 .403.16.403.398 0 .242-.16.402-.403.402H2.793c-.238 0-.398-.16-.398-.402 0-.238.16-.398.398-.398zm-1.2 14.007c0-1.242.52-2.441 1.481-3.28.078-.04.121-.161.121-.282V2.996h5.64v8.844c0 .082.04.2.122.281.961.84 1.48 2.04 1.48 3.281 0 1.2-.519 2.36-1.402 3.203H2.992c-.879-.843-1.398-2.003-1.398-3.203zm21.41 6.203c-.32.641-.921 1-1.64 1H2.672c-.68 0-1.32-.359-1.64-1-.321-.64-.278-1.359.12-1.96l.16-.243h21.372l.199.282c.402.601.441 1.28.12 1.921zm0 0"/>
    <path d="M21.605 20.605H2.395c-.243 0-.403.16-.403.399 0 .242.16.402.403.402h19.207c.242 0 .402-.16.402-.402 0-.238-.16-.399-.399-.399zm0 0"/>
</svg>
